!!!COM: Claude Goudimel
!!!OMD: Psalm 42: Ainsi qu'on oit le cerf
**kern	**kern	**kern	**kern
*part4	*part3	*part2	*part1
*staff4	*staff3	*staff2	*staff1
*I"bassus	*I"tenor	*I"contra	*I"superius
*clefC4	*clefC3	*clefC2	*clefG2
!!LO:TX:omd:t=
*M2/2	*M2/2	*M2/2	*M2/2
*met(c|)	*met(c|)	*met(c|)	*met(c|)
=1	=1	=1	=1
1c	1c	1g	1cc
=2	=2	=2	=2
2G	2d	2g	2b
[2c	[2e	[2g	[2cc
=3	=3	=3	=3
2c]	2e]	2g]	2cc]
2G	2d	2g	2b
=4	=4	=4	=4
2A	2c	2e	2a
2E	2B	2e	2g
=5	=5	=5	=5
1F	1A	1c	1f
=6	=6	=6	=6
1C	1G	1c	1e
=7	=7	=7	=7
1r	1r	1r	1r
=8	=8	=8	=8
1c	1c	1e	1g
=9	=9	=9	=9
2G	2d	2g	2b
[2c	[2e	[2g	[2cc
=10	=10	=10	=10
2c]	2e]	2g]	2cc]
2F	2f	2a	2cc
=11	=11	=11	=11
1c	1e	1g	1cc
=12	=12	=12	=12
1G	1d	1g	1b
=13	=13	=13	=13
1C	1c	1g	1cc
=14	=14	=14	=14
1r	1r	1r	1r
=15	=15	=15	=15
1c	1c	1g	1cc
=16	=16	=16	=16
2G	2d	2g	2b
[2c	[2e	[2g	[2cc
=17	=17	=17	=17
2c]	2e]	2g]	2cc]
2G	2d	2g	2b
=18	=18	=18	=18
2A	2c	2e	2a
2E	2B	2e	2g
=19	=19	=19	=19
1F	1A	1c	1f
=20	=20	=20	=20
1C	1G	1c	1e
=21	=21	=21	=21
1r	1r	1r	1r
=22	=22	=22	=22
1c	1c	1e	1g
=23	=23	=23	=23
2G	2d	2g	2b
[2c	[2e	[2g	[2cc
=24	=24	=24	=24
2c]	2e]	2g]	2cc]
2F	2f	2a	2cc
=25	=25	=25	=25
1c	1e	1g	1cc
=26	=26	=26	=26
1G	1d	1g	1b
=27	=27	=27	=27
1C	1c	1g	1cc
=28	=28	=28	=28
1r	1r	1r	1r
=29	=29	=29	=29
1c	1e	1g	1cc
=30	=30	=30	=30
2c	2e	2g	2cc
[2c	[2g	[2e	[2cc
=31	=31	=31	=31
2c]	2g]	2e]	2cc]
2F	2f	2a	2cc
=32	=32	=32	=32
2c	2e	2g	2cc
2G	2d	2g	2b
=33	=33	=33	=33
1c	1e	1g	1cc
=34	=34	=34	=34
1r	1r	1r	1r
=35	=35	=35	=35
1c	1g	1e	1cc
=36	=36	=36	=36
2c	2g	2e	2cc
[2F	[2a	[2f	[2cc
=37	=37	=37	=37
2F]	2a]	2f]	2cc]
2C	2g	2e	2cc
=38	=38	=38	=38
2F	2f	2a	2cc
2C	2e	2g	2cc
=39	=39	=39	=39
1G	1d	1g	1b
=40	=40	=40	=40
1r	1r	1r	1r
=41	=41	=41	=41
1c	1e	1g	1cc
=42	=42	=42	=42
2G	2g	2b-X	2dd
[2d	[2f	[2b-X	[2dd
=43	=43	=43	=43
2d]	2f]	2b-]	2dd]
2A	2e	2a	2cc
=44	=44	=44	=44
2A	2c	2e	2a
2G	2d	2g	2b
=45	=45	=45	=45
1c	1e	1g	1cc
=46	=46	=46	=46
1F	1c	1f	1a
=47	=47	=47	=47
1r	1r	1r	1r
=48	=48	=48	=48
1C	1e	1g	1cc
=49	=49	=49	=49
2C	2e	2g	2cc
[2F	[2f	[2c	[2a
=50	=50	=50	=50
2F]	2f]	2c]	2a]
2C	2e	2c	2g
=51	=51	=51	=51
2G	2d	2B	2g
2A	[2c	2c	2f
=52	=52	=52	=52
1G	2c]	1d	1g
.	2B	.	.
=53	=53	=53	=53
1C;	1c;	1e;	1g;
==	==	==	==
*-	*-	*-	*-
!!!software: music21 v.9.7.1
!!!software: music21 v.9.1.0
!!!RDF**kern: > = above
!!!RDF**kern: < = below
